!!!OTL: Spottlied auf den 1574 aus Krakau entflohenen Polenkoenig, Heinrich III. von Anjou.
!!!ARE: Europa, Mitteleuropa, Deutschland
!!!SCT: A0412
!!!TXL: @@NDS
!!!YEM: Copyright 1995, estate of Helmut Schaffrath.
**kern	**text
*M4/4	*
*met(c)	*
*clefC1	*
*k[]	*
*G:ion	*
!LO:TX:a:t=jon. tr. (G dur.)	!
{4d	Bom-
=1	=1
4g	-bey,
4g	bom-
4a	-bey,
4a	ihr
=2	=2
2b	Po-
4a}	-len,
{4a	Gott
=3	=3
4b	grüß
4g/	euch
4g/	all
4f#	ʒu-
=4	=4
2g/	-gleich,}
4r}	.
{4d	Ew'rn
=1	=1
4g	Kö-
4g	-nig
4a	ſolt
4a	ihr
=2	=2
2b	ho-
4a}	-len,
{4a	ſo
=3	=3
4b	fer-
4g/	-ne
4g/	in
4f#	Frank-
=4	=4
2g/	-reich.}
4r}	.
{4b	Nun
=5	=5
4b	rüſt'
4b	euch
4a	bald
4a	vnd
=6	=6
4b	ſchmiert
4b	die
4a}	Schuch,
{4a	ver-
=7	=7
4b	-kauft
4b	den
4a	Och-
4a	-ſen
=8	=8
4b	bhalt
4b	die
2a	Kue.
=9	=9
4r}	.
{4a	Jo-
4b	-koſ-
4g	-ko
=10	=10
4g/	ba-
4f#	-ba-
4g/;}	-dey!
==	==
!!!GTL: Einige historisch-politische Lieder
!!!AGN: Romanze, Ballade, Lied, Kriegslied
!! Werlin 1646 S. 2292.
!!!ONB: ESAC (Essen Associative Code) Database: ALTDEU
!!!AMT: simple quadruple
!!!AIN: vox
!!!EED: Helmut Schaffrath
!!!EEV: 1.0
!!!URL-scan: https://rosdok.uni-rostock.de/mcrviewer/recordIdentifier/rosdok_ppn738218359/iview2/phys_0586.iview2?x=178.71856788692526&y=863.5989181478508&scale=0.7083010262257697&rotation=0&layout=singlePageLayout
!!!ENC: Anna Maria Matuszewska
!!!EEV: 2024/15/03
*-	*-
